svg/fluentui-system-icons/ic_fluent_signature_28_regular.svg

<svg width="28" height="28" viewBox="0 0 28 28" fill="none" xmlns="http://www.w3.org/2000/svg">
<path d="M16.4805 21.0018L16.7506 20.9999C17.9708 20.9999 18.6118 21.5057 19.4026 22.704L19.7964 23.3123C20.1034 23.7668 20.295 23.9572 20.5364 24.0567C20.9691 24.235 21.3277 24.1473 22.6446 23.5132L23.0479 23.3169C23.8716 22.9125 24.4336 22.681 25.0687 22.5223C25.4705 22.4218 25.8777 22.6661 25.9782 23.068C26.0786 23.4698 25.8343 23.877 25.4325 23.9775C25.0377 24.0762 24.6595 24.2177 24.1647 24.4458L23.0061 25.0031C21.4382 25.7436 20.9065 25.8316 19.9648 25.4435C19.3397 25.1859 18.9842 24.8132 18.4641 24.0179L18.2695 23.7139C17.7077 22.8287 17.4064 22.5383 16.8694 22.5035L16.7506 22.4999C16.2023 22.4999 16.0939 22.5683 14.0099 24.1149C12.2676 25.4078 10.9389 26.0254 9.24921 26.0254C7.1893 26.0254 5.24831 25.6469 3.43203 24.8904L6.31435 24.224C7.25827 24.4249 8.23624 24.5254 9.24921 24.5254C10.5399 24.5254 11.6097 24.0281 13.116 22.9103L14.276 22.0544C15.5474 21.1304 15.8302 21.0159 16.4805 21.0018ZM22.7777 3.22195C24.4513 4.89558 24.4513 7.60902 22.7778 9.28268L21.7422 10.3183C22.8942 11.7198 22.8527 13.2052 21.7817 14.2794L18.7806 17.2805C18.4876 17.5732 18.0127 17.573 17.72 17.2799C17.4272 16.9869 17.4275 16.512 17.7205 16.2193L20.7195 13.2203C21.2045 12.7338 21.2606 12.1299 20.6795 11.3818L10.0851 21.976C9.78693 22.2742 9.41093 22.4826 9.00002 22.5774L2.91922 23.9807C2.37916 24.1053 1.89515 23.6213 2.01978 23.0812L3.42305 17.0004C3.51787 16.5895 3.72624 16.2135 4.0244 15.9154L16.7171 3.22204C18.3906 1.54842 21.104 1.54837 22.7777 3.22195ZM17.7778 4.28268L5.08509 16.976C4.9857 17.0754 4.91624 17.2007 4.88464 17.3377L3.7512 22.2492L8.66273 21.1158C8.7997 21.0842 8.92503 21.0147 9.02443 20.9153L21.7171 8.22204C22.8049 7.13418 22.8049 5.37047 21.717 4.28263C20.6292 3.19483 18.8655 3.19486 17.7778 4.28268Z" fill="#212121"/>
</svg>

<svg xmlns="http://www.w3.org/2000/svg" width="28" height="28"><path d="m16.48 21.002.27-.002c1.22 0 1.862.506 2.653 1.704l.393.608c.307.455.499.645.74.745.433.178.792.09 2.109-.544l.403-.196c.824-.404 1.386-.636 2.02-.795a.75.75 0 1 1 .364 1.456c-.394.098-.772.24-1.267.468l-1.159.557c-1.568.74-2.1.829-3.041.44-.625-.257-.98-.63-1.5-1.425l-.195-.304c-.562-.885-.864-1.176-1.4-1.21l-.12-.004c-.548 0-.656.068-2.74 1.615-1.742 1.293-3.071 1.91-4.76 1.91-2.06 0-4.002-.378-5.818-1.135l2.882-.666c.944.2 1.922.301 2.935.301 1.29 0 2.36-.497 3.867-1.615l1.16-.856c1.271-.924 1.554-1.038 2.204-1.052Zm6.298-17.78a4.286 4.286 0 0 1 0 6.06l-1.036 1.036c1.152 1.402 1.11 2.887.04 3.961l-3.001 3.002a.75.75 0 1 1-1.06-1.062l2.998-2.999c.485-.486.542-1.09-.04-1.838L10.086 21.976A2.25 2.25 0 0 1 9 22.577l-6.08 1.404a.75.75 0 0 1-.9-.9l1.403-6.08a2.25 2.25 0 0 1 .601-1.086L16.717 3.222a4.285 4.285 0 0 1 6.06 0Zm-5 1.06L5.085 16.977a.75.75 0 0 0-.2.362l-1.135 4.91 4.912-1.133a.75.75 0 0 0 .361-.2L21.717 8.221a2.786 2.786 0 0 0-3.94-3.94Z"/></svg>
